images/tiles/t9.svg

<svg 
    xmlns="http://www.w3.org/2000/svg"
    width="1200" 
    height="1200">
    <g id="group">
        <path d="M360,600C360,798.82251,198.82251,960,0,960v-240c66.27417,0,120-53.72583,120-120s-53.72583-120-120-120v-240c198.82251,0,360,161.17749,360,360Z" fill="#dee1e6" stroke-width="0"/>
        <path d="M720,0h240c0,132.54834,107.45166,239.99999,240,239.99999v240c-265.09668,0-480-214.90332-480-480L720,0Z" fill="#dee1e6" stroke-width="0"/>
        <path d="M240,1200c0-240,240-366.96105,240-600C480,353.03458,240,240,240,0.00001L239.99998,0h240.00006L480,0.00001C480,480,960,720,960,1200h-240c1.29212-77.22177-10.28015-166.66001-24.69958-240-20.68019-105.18335-54.55499-172.7924-126.92505-85.94833C502.18165,953.48413,480,1057.06558,480.00004,1200L240,1200Z" fill="#dee1e6" stroke-width="0"/>
        <path d="M1200,720c-141.992166,0-150.683034-94.527751-223.227209-50.012006-48.963587,30.045838-48.307068,102.757318,5.564044,176.936599C1016.206355,893.562143,1096.956141,960,1199.999999,960" fill="#dee1e6" stroke-width="0"/>
        <path d="M0,240c198.82251,0,360,161.17749,360,360s-161.17749,360-360,360" fill="none" stroke="#292F33" stroke-width="30"/>
        <path d="M0,720c66.27417,0,120-53.72583,120-120s-53.72583-120-120-120" fill="none" stroke="#292F33" stroke-width="30"/>
        <path d="M1200,479.99999c-265.09668,0-480-214.90332-480-480L720,0" fill="none" stroke="#292F33" stroke-width="30"/>
        <path d="M960,0c0,132.54834,107.45166,239.99999,240,239.99999" fill="none" stroke="#292F33" stroke-width="30"/>
        <path d="M480.00004,0L480,0.00001C480,480,960,720,960,1200" fill="none" stroke="#292F33" stroke-width="30"/>
        <path d="M720,1200c1.29212-77.22177-10.28015-166.66001-24.69958-240-20.68019-105.18335-54.55499-172.7924-126.92505-85.94833C502.18165,953.48413,480,1057.06558,480.00004,1200" fill="none" stroke="#292F33" stroke-width="30"/>
        <path d="M240,1200c0-240,240-366.96105,240-600C480,353.03458,240,240,240,0.00001L239.99998,0" fill="none" stroke="#292F33" stroke-width="30"/>
        <path d="M1200,720c-141.992166,0-150.683034-94.527751-223.227209-50.012006-48.963587,30.045838-48.307068,102.757318,5.564044,176.936599C1016.206355,893.562143,1096.956141,960,1199.999999,960" fill="none" stroke="#292F33" stroke-width="30"/>
    </g>
</svg>

<svg xmlns="http://www.w3.org/2000/svg" width="1200" height="1200">
  <style>
    .fillColor {
      fill: #dee1e6;
    }
    .strokeColor {
      stroke: #292F33;
      stroke-width: 30;
    }
  </style>
  <g id="group">
    <path class="fillColor" style="stroke-width:0;" d="M360 600A360 360 0 0 1 0 960V720a120 120 0 1 0 0-240V240a360 360 0 0 1 360 360zM720 0h240a240 240 0 0 0 240 240v240A480 480 0 0 1 720 0z"/>
    <path class="fillColor" style="stroke-width:0;" d="M240 1200c0-240 240-367 240-600 0-247-240-360-240-600h240c0 480 480 720 480 1200H720c1.3-77.2-10.3-166.7-24.7-240-20.7-105.2-54.6-172.8-127-86-66.1 79.5-88.3 183-88.3 326H240zM1200 720c-142 0-150.7-94.5-223.2-50-49 30-48.3 102.7 5.5 177 34 46.6 114.7 113 217.7 113"/>
    <path class="strokeColor" style="fill:none;" d="M0 240a360 360 0 1 1 0 720M0 720a120 120 0 1 0 0-240M1200 480A480 480 0 0 1 720 0h0M960 0a240 240 0 0 0 240 240M480 0h0c0 480 480 720 480 1200M720 1200c1.3-77.2-10.3-166.7-24.7-240-20.7-105.2-54.6-172.8-127-86-66.1 79.5-88.3 183-88.3 326"/>
    <path class="strokeColor" style="fill:none;" d="M240 1200c0-240 240-367 240-600 0-247-240-360-240-600h0M1200 720c-142 0-150.7-94.5-223.2-50-49 30-48.3 102.7 5.5 177 34 46.6 114.7 113 217.7 113"/>
  </g>
</svg>
